!!!COM: Scriabin, Alexander
!!!OTL@@FR: Poème fantasque
!!!OTL@@EN: Capricious Poem
!!!OPR@@FR: 3 Morceaux
!!!OPR@@EN: 3 Pieces
!!!OPS: 45
!!!ONM: 2
!!!ODT: 1904
!!!AGN: Poem
**kern	**kern	**dynam
*staff2	*staff1	*staff1/2
*Ipiano	*Ipiano	*
*clefF4	*clefG2	*
*k[]	*k[]	*
*C:	*C:	*
*M3/4	*M3/4	*
*	*^	*
8BL 8f\	12g\L	4dd#X/	.
.	12g#X	.	.
8D-XJ	.	.	.
.	[12aJ	.	.
=1	=1	=1	=1
8FL 8B 8f/	4a] 4dd#X\	12bb/L	.
.	.	12dd#	.
8GGGnJ 8GGn	.	.	.
.	.	12dd#J	.
4B\	4f 4a\	4dd#/	.
8FL 8B\	12c#X\L	4a/	.
.	12dn	.	.
8GGJ	.	.	.
.	12d#XJ	.	.
=2	=2	=2	=2
2.CCn 2.GG 2.F 2.B/	12d#X\L	2.a 2.ff/	.
.	12dn	.	.
.	[12d#XJ	.	.
.	12d#\L]	.	.
.	12dn	.	.
.	[12d#XJ	.	.
.	12d#\L]	.	.
.	12dn	.	.
.	12d#XJ	.	.
=3	=3	=3	=3
8E 8F#X 8c 8e\	4rc	8a-X 8cc 8ee 8aa-X\	.
8r	.	8raa	.
4r	4rc	4raa	.
8F#XL 8c\	12dn\L	4a#X/	.
.	12d#X	.	.
8AA-XJ	.	.	.
.	[12eJ	.	.
=4	=4	=4	=4
8CL 8F#X 8c/	4e] 4a#X\	12ff#X/L	.
.	.	12a#	.
8DDDnJ 8DDn	.	.	.
.	.	12a#J	.
4F#\	4c 4e\	4a#/	.
8cL 8f#X\	12g#X\L	4ee/	.
.	12an	.	.
8DJ	.	.	.
.	12a#XJ	.	.
=5	=5	=5	=5
2.GGn 2.D 2.c 2.f#X\	12a#X\L	2.ee 2.ccc/	.
.	12an	.	.
.	[12a#XJ	.	.
.	12a#\L]	.	.
.	12an	.	.
.	[12a#XJ	.	.
.	12a#\L]	.	.
.	12an	.	.
.	12a#XJ	.	.
*	*v	*v	*
*clefG2	*	*
=6	=6	=6
4r	4r	.
8B 8c#X 8g 8b/	8ee-X 8gg 8bb 8eee-X\	.
8r	8r	.
4r	4r	.
*clefF4	*	*
=7	=7	=7
*^	*	*
12d-\L	2.d-X/	[4a/	.
12E-X	.	.	.
12gJ	.	.	.
4rEE	.	6a/]	.
.	.	12b-X\	.
4rEE	.	6a/	.
.	.	12b-\	.
=8	=8	=8	=8
12dn\L	2d/	4g-X 4b-X [4gg-X\	.
12B-X	.	.	.
12EJ	.	.	.
12C\L	.	12gg-\L]	.
12CCJ	.	12b-	.
12rEE	.	12g-J	.
4rEE	4rc	8B-X/	.
.	.	8r	.
=9	=9	=9	=9
*	*	*^	*
12G-\L	2.G-X/	2.g-X 2.cc\	[4d [4dd/	.
12AA-X	.	.	.	.
12cJ	.	.	.	.
4rEE	.	.	6d] 6dd/]	.
.	.	.	12e-X 12ee-X/	.
4rEE	.	.	6d 6dd/	.
.	.	.	12e- 12ee-/	.
*	*	*v	*v	*
=10	=10	=10	=10
12Gn\L	2G/	4cc-X 4ee-X [4ccc-X\	.
12E-X	.	.	.
12FFJ	.	.	.
8A 8e-X 8g\	.	12ccc-\L]	.
.	.	12ee-	.
8rEE	.	.	.
.	.	12cc-J	.
4rEE	4rc	8e-X/	.
.	.	8r	.
=11	=11	=11	=11
12g\L	[4g/	2.b 2.ff 2.bb\	.
12f	.	.	.
12BJ	.	.	.
8D-X\	6g/]	.	.
8rEE	.	.	.
.	12a-X/	.	.
4B 4f\	6g/	.	.
.	12a-/	.	.
=12	=12	=12	=12
*	*	*^	*
16an\LL	2a/	6ee 6eee\	4ff 4bb/	.
16f	.	.	.	.
16B	.	.	.	.
.	.	12dd#X 12ddd#X\	.	.
16FJJ	.	.	.	.
8GG\	.	6ee 6eee\	4ff 4bb/	.
8rEE	.	.	.	.
.	.	12dd# 12ddd#\	.	.
8BL 8f\	4rc	12g\L	4dd#/	.
.	.	12g#X	.	.
8D-XJ	.	.	.	.
.	.	[12aJ	.	.
*v	*v	*	*	*
=13	=13	=13	=13
8FL 8B 8f/	4a] 4dd#X\	12bb/L	.
.	.	12dd#	.
8GGGnJ 8GGn	.	.	.
.	.	12dd#J	.
4B\	4f 4a\	4dd#/	.
8FL 8B\	12c#X\L	4a/	.
.	12dn	.	.
8GGJ	.	.	.
.	12d#XJ	.	.
=14	=14	=14	=14
2.CCn 2.GG 2.F 2.B/	12d#X\L	2.a 2.ff/	.
.	12dn	.	.
.	[12d#XJ	.	.
.	12d#\L]	.	.
.	12dn	.	.
.	[12d#XJ	.	.
.	12d#\L]	.	.
.	12dn	.	.
.	12d#XJ	.	.
=15	=15	=15	=15
*^	*	*	*
4rEE	4rc	4rc	4raa	.
2E 2c 2e\	4F#X/	4a-X 4aa-X\	2cc 2ee/	.
.	4G/	4g 4gg\	.	.
*v	*v	*	*	*
*	*v	*v	*
=16	=16	=16
2.r	2.r	.
==	==	==
*-	*-	*-
!!!system-decoration: {(*)}
!!!ENC: Bryan Jacob Bell
!!!END: November 2021 to April 2022
!!!PED: Günter Philipp
!!!PTL: Ausgewählte Klavierwerke (Edition Peters)
